other/joelchrono12/buran.svg

<?xml version="1.0" encoding="UTF-8" standalone="no"?>
<!-- Created with Inkscape (http://www.inkscape.org/) -->

<svg
   width="48"
   height="48"
   viewBox="0 0 48 48.000002"
   version="1.1"
   id="svg5"
   inkscape:version="1.2 (dc2aedaf03, 2022-05-15)"
   xml:space="preserve"
   sodipodi:docname="buran.svg"
   xmlns:inkscape="http://www.inkscape.org/namespaces/inkscape"
   xmlns:sodipodi="http://sodipodi.sourceforge.net/DTD/sodipodi-0.dtd"
   xmlns="http://www.w3.org/2000/svg"
   xmlns:svg="http://www.w3.org/2000/svg"><sodipodi:namedview
     id="namedview7"
     pagecolor="#505050"
     bordercolor="#eeeeee"
     borderopacity="1"
     inkscape:pageshadow="0"
     inkscape:pageopacity="0"
     inkscape:pagecheckerboard="0"
     inkscape:document-units="px"
     showgrid="false"
     units="px"
     inkscape:zoom="9.7209876"
     inkscape:cx="3.7547625"
     inkscape:cy="15.842012"
     inkscape:window-width="1880"
     inkscape:window-height="1014"
     inkscape:window-x="20"
     inkscape:window-y="46"
     inkscape:window-maximized="0"
     inkscape:current-layer="layer1"
     inkscape:showpageshadow="0"
     inkscape:deskcolor="#505050"
     showguides="true"><sodipodi:guide
       position="24,24"
       orientation="-1,0"
       id="guide308"
       inkscape:locked="false"
       inkscape:label=""
       inkscape:color="rgb(0,134,229)" /></sodipodi:namedview><defs
     id="defs2" /><g
     inkscape:label="Layer 1"
     inkscape:groupmode="layer"
     id="layer1"><path
       style="fill:none;stroke:#ffffff;stroke-width:1;stroke-linecap:round;stroke-linejoin:round;stroke-opacity:1;stroke-dasharray:none"
       d="m 24,2.4989096 c -2.057903,0 -3.790666,5.8836949 -3.790666,10.0098544"
       id="path310"
       sodipodi:nodetypes="cc" /><path
       style="fill:none;stroke:#ffffff;stroke-width:1;stroke-linecap:round;stroke-linejoin:round;stroke-opacity:1;stroke-dasharray:none"
       d="m 20.424347,11.16905 c 2.383769,0 4.767537,0 7.151306,0"
       id="path408"
       sodipodi:nodetypes="cc" /><path
       style="fill:none;stroke:#ffffff;stroke-width:1;stroke-linecap:round;stroke-linejoin:round;stroke-opacity:1;stroke-dasharray:none"
       d="m 20.209334,17.654088 c 2.527111,0 5.054221,0 7.581332,0"
       id="path410"
       sodipodi:nodetypes="cc" /><path
       style="fill:none;stroke:#ffffff;stroke-width:1;stroke-linecap:round;stroke-linejoin:round;stroke-opacity:1;stroke-dasharray:none"
       d="m 20.209334,24 c 2.527111,0 5.054221,0 7.581332,0"
       id="path412"
       sodipodi:nodetypes="cc" /><path
       style="fill:none;stroke:#ffffff;stroke-width:1;stroke-linecap:round;stroke-linejoin:round;stroke-opacity:1;stroke-dasharray:none"
       d="M 20.209334,42.152527 V 12.508764"
       id="path414"
       sodipodi:nodetypes="cc" /><path
       style="fill:none;stroke:#ffffff;stroke-width:1;stroke-linecap:round;stroke-linejoin:round;stroke-opacity:1;stroke-dasharray:none"
       d="m 20.209334,30.06713 c 2.527111,0 5.054221,0 7.581332,0"
       id="path468"
       sodipodi:nodetypes="cc" /><path
       style="fill:none;stroke:#ffffff;stroke-width:1;stroke-linecap:round;stroke-linejoin:miter;stroke-opacity:1;stroke-dasharray:none"
       d="M 8.0889927,37.877712 H 20.209334"
       id="path1108" /><path
       style="fill:none;stroke:#ffffff;stroke-width:1;stroke-linecap:round;stroke-linejoin:miter;stroke-opacity:1;stroke-dasharray:none"
       d="m 16.044496,37.877712 v 3.3566"
       id="path1110" /><path
       style="fill:none;stroke:#ffffff;stroke-width:1;stroke-linecap:round;stroke-linejoin:miter;stroke-opacity:1;stroke-dasharray:none"
       d="M 12.258148,37.877712 V 40.39014"
       id="path1112" /><path
       style="fill:none;stroke:#ffffff;stroke-width:1;stroke-linecap:round;stroke-linejoin:round;stroke-opacity:1;stroke-dasharray:none"
       d="m 24,2.4989096 c 2.057903,0 3.790666,5.8836949 3.790666,10.0098544"
       id="path1127"
       sodipodi:nodetypes="cc" /><path
       style="fill:none;stroke:#ffffff;stroke-width:1;stroke-linecap:round;stroke-linejoin:round;stroke-opacity:1;stroke-dasharray:none"
       d="M 27.790666,42.152527 V 12.508764"
       id="path1135"
       sodipodi:nodetypes="cc" /><path
       style="fill:none;stroke:#ffffff;stroke-width:1;stroke-linecap:round;stroke-linejoin:round;stroke-opacity:1;stroke-dasharray:none"
       d="m 27.790666,36.128156 c -2.527111,0 -5.054221,0 -7.581332,0"
       id="path1139"
       sodipodi:nodetypes="cc" /><path
       style="fill:none;stroke:#ffffff;stroke-width:1;stroke-linecap:round;stroke-linejoin:miter;stroke-opacity:1;stroke-dasharray:none"
       d="M 39.911007,37.877712 H 27.790666"
       id="path1143" /><path
       style="fill:none;stroke:#ffffff;stroke-width:1;stroke-linecap:round;stroke-linejoin:miter;stroke-opacity:1;stroke-dasharray:none"
       d="m 31.955504,37.877712 v 3.3566"
       id="path1145" /><path
       style="fill:none;stroke:#ffffff;stroke-width:1;stroke-linecap:round;stroke-linejoin:miter;stroke-opacity:1;stroke-dasharray:none"
       d="M 35.741852,37.877712 V 40.39014"
       id="path1147" /><path
       style="fill:none;stroke:#ffffff;stroke-width:1;stroke-linecap:round;stroke-linejoin:round;stroke-opacity:1;stroke-dasharray:none"
       d="M 20.424347,11.16905 14.149164,29.376975 8.0889927,34.75395 v 3.123762 c 0,1.009184 1.1176712,1.769078 2.1249853,2.038112 0.914706,0.244301 9.995356,2.236703 9.995356,2.236703 v 3.348564 h 2.317393 V 42.360113 H 24"
       id="path1151"
       sodipodi:nodetypes="cccssccccc" /><path
       style="fill:none;stroke:#ffffff;stroke-width:1;stroke-linecap:round;stroke-linejoin:round;stroke-opacity:1;stroke-dasharray:none"
       d="m 27.575653,11.16905 6.275183,18.207925 6.060171,5.376975 v 3.123762 c 0,1.009184 -1.117671,1.769078 -2.124985,2.038112 -0.914706,0.244301 -9.995356,2.236703 -9.995356,2.236703 v 3.348564 H 25.473273 V 42.360113 H 24"
       id="path1153"
       sodipodi:nodetypes="cccssccccc" /></g></svg>

<?xml version="1.0" encoding="UTF-8"?>
<svg width="48" height="48" version="1.1" viewBox="0 0 48 48" xml:space="preserve" xmlns="http://www.w3.org/2000/svg"><g fill="none" stroke="#fff" stroke-linecap="round"><g stroke-linejoin="round"><path d="m24 2.5c-2.06 0-3.79 5.88-3.79 10"/><path d="m20.4 11.2h7.15"/><path d="m20.2 17.7h7.58"/><path d="m20.2 24h7.58"/><path d="m20.2 42.2v-29.6"/><path d="m20.2 30.1h7.58"/></g><g><path d="m8.09 37.9h12.1"/><path d="m16 37.9v3.36"/><path d="m12.3 37.9v2.51"/></g><g stroke-linejoin="round"><path d="m24 2.5c2.06 0 3.79 5.88 3.79 10"/><path d="m27.8 42.2v-29.6"/><path d="m27.8 36.1h-7.58"/></g><g><path d="m39.9 37.9h-12.1"/><path d="m32 37.9v3.36"/><path d="m35.7 37.9v2.51"/></g><path d="m20.4 11.2-6.28 18.2-6.06 5.38v3.12c0 1.01 1.12 1.77 2.12 2.04 0.915 0.244 10 2.24 10 2.24v3.35h2.32v-3.14h1.47" stroke-linejoin="round"/><path d="m27.6 11.2 6.28 18.2 6.06 5.38v3.12c0 1.01-1.12 1.77-2.12 2.04-0.915 0.244-10 2.24-10 2.24v3.35h-2.32v-3.14h-1.47" stroke-linejoin="round"/></g></svg>
